!!!OTL: Jm Wald und auf der Haide.
!!!OTL-incipit: IM WALD UND AUF DER HAIDE
!!!COM: Volksweise
!!!ARE: Europa, Mitteleuropa, Deutschland
!!!SCT: F0657
!!!TXL: @@DE
!!!YEM: Copyright 1995, estate of Helmut Schaffrath.
**kern	**text
*ICvox	*
*clefG2	*
*M6/8	*
*k[]	*
*C:	*
!LO:TX:a:t=Friſch und munter.	!
!LO:TX:a:t=P:only the highest voice encoded:problem	!
{8g	1._Jm
=1	=1
4g	Wald
8g	und
4g	auf
8g	der
=2	=2
4.g	Hai-
8e	-de,
8r}	.
{8g	da
=3	=3
4cc/	ſuch'
8cc/	ich
4cc/	mei-
8cc/	-ne
=4	=4
4.ee	Freu-
8cc/L	-de,
8bJ}	.
{8a	ich
=5	=5
4g	bin
8g	ein
8gL	Jä-
8aJ	.
8b/	-gersmann,
=6	=6
4.cc/	.
4r}	.
{8a	ich
=7	=7
4g	bin
8g	ein
8gL	Jä-
8aJ	.
8b/	-gers-
=8	=8
4.cc/	-mann.
4r}	.
{8g	Den
=9	=9
4g	Wald
8g	und
4g	Forſt
8g	ʒu
=10	=10
(>4g	he-
8ee/)	.
4cc/}	-gen,
{8b/	das
=11	=11
4a	Wildpret
8a	.
4a	ʒu
8a	er-
=12	=12
(>4a	-le-
8ff/)	.
4dd/}	-gen,
{8cc/	iſt
=13	=13
4b/	das
8b/	nicht
8b/L	wohlge-
8ccJ	.
8dd/	.
=14	=14
(>4.ee	-than,
8ff/L)	.
8eeJ}	.
{8dd/	iſt
=15	=15
4cc/	das
8cc/	nicht
4b/	wohl-
8b/	-ge-
=16	=16
4.cc/	-than?
4r}	.
{8g	Hal-
=17	=17
(8gL	-li
8eJ)	.
8g	hal-
4cc/	-lo,
8cc/	hal-
=18	=18
8ccL	-li
8gJ	.
8cc/	hal-
4ee/}	-lo!
{8ee/	iſt
=19	=19
4dd/	das
8dd/	nicht
4b/	wohl
8b/	ge-
=20	=20
4.cc/	-than?
4r}	.
{8g	Hal-
=21	=21
(8gL	-li
8eJ)	.
8g	hal-
4cc/	-lo,
8cc/	hal-
=22	=22
8ccL	-li
8gJ	.
8cc/	hal-
4ee/}	-lo!
{8ee/	iſt
=23	=23
4dd/	das
8dd/	nicht
4b/	wohl
8b/	ge-
=24	=24
4.cc/	-than?
4r}	.
==;	==;
!!!AGN: Staende -, Jaeger - Lied
!!!ONB: ESAC (Essen Associative Code) Database: FINK
!!!AMT: compound duple
!!!AIN: vox
!!!EED: Helmut Schaffrath
!!!EEV: 1.0
!!!RDF**kern: > = above
!!!GTL: Soldaten- und Jaegerlieder
!!Text: Volkslied
!!!source: Musikalischer Hausschatz der Deutschen. Eine Sammlung von über 1000 Liedern und Gesängen mit Singstimmen und Klavierbegleitung. Leipzig, Litterarisches Verlags-Haus.
!!!page: 432
!!!URL-scan: https://www.digitale-sammlungen.de/en/view/bsb11144622?page=399
!!!ENC: Anna Maria Matuszewska
!!!EEV: 2024/08/05
*-	*-
